release/img/loud.svg

<svg width="25" height="25" viewBox="0 0 25 25" fill="none" xmlns="http://www.w3.org/2000/svg">
<path d="M17.5 18.585V6.085C19.0312 7.46 20 10.1213 20 12.335C20 14.5487 19.0312 17.21 17.5 18.585Z" fill="#13B5CC"/>
<path d="M5.87125 18.585H2.5C1.12125 18.585 0 17.4638 0 16.085V8.585C0 7.20625 1.12125 6.085 2.5 6.085H5.87125L15 0V24.67L5.87125 18.585Z" fill="#13B5CC"/>
<path d="M24.9988 12.335C24.9988 17.4487 21.9088 21.6512 17.5 23.585V21.085C20.4838 19.3525 22.4988 16.0262 22.4988 12.335C22.4988 8.64371 20.4838 5.31746 17.5 3.58496V1.08496C21.9088 3.01871 24.9988 7.22121 24.9988 12.335Z" fill="#13B5CC"/>
</svg>

<svg xmlns="http://www.w3.org/2000/svg" width="25" height="25" fill="none" viewBox="0 0 25 25">
  <path fill="#13B5CC" d="M17.5 18.585v-12.5c1.531 1.375 2.5 4.036 2.5 6.25 0 2.214-.969 4.875-2.5 6.25Zm-11.629 0H2.5a2.502 2.502 0 0 1-2.5-2.5v-7.5c0-1.379 1.121-2.5 2.5-2.5h3.371L15 0v24.67l-9.129-6.085Z"/>
  <path fill="#13B5CC" d="M24.999 12.335c0 5.114-3.09 9.316-7.499 11.25v-2.5c2.984-1.733 4.999-5.059 4.999-8.75s-2.015-7.018-4.999-8.75v-2.5c4.409 1.934 7.499 6.136 7.499 11.25Z"/>
</svg>
